X: 55
T: Wuzhi shan wu tiao xi
%%abc-version 2.0
%%abcx-abcm2ps-target-version 5.9.1 (29 Sep 2008)
%%abc-creator hum2abc beta
%%abcx-conversion-date 2013/10/02 07:44:27
%%abc-edited-by Helmut Schaffrath
%%humdrum-veritas 3599374725
%%humdrum-veritas-data 3573421795
%%continueall 1
%%barnumbers 0
L: 1/4
M: 2/4
K: C
dcd [I:setbarnb 1]| 
eG2 | 
dcd | 
g3 | 
ced | 
c2G | 
e/ d/ c/ e/d | 
d3 | 
EAc | 
G2E | 
GAc | 
A3 | 
EAc | 
G2E | 
Gz/ G/ | 
GG | 
c2 |]  



